X:632
T: "Die Werber"
N: Z1313
O: Europa, Mitteleuropa, Deutschland, Niederrhein
R: Zech -, Schalks - Lied, Brauchtums - Lied
M: 3/8
L: 1/16
K: G
D2 | G2G2A2 | _B2B2c2 | d4c2 | d4
d2 | g4d2 | c2_B2A2 | d6 | G2z2
D2 | G2G2F2 | G2G2A2 | _B4c2 | d4
c_B | A2G2F2 | G2A2_B2 | d6 | G4

